!! 00000] TT[WS
!!!OTL: Yenjie kuxiufang
!!!ARE: Asia, China, Shanxi Dingxiang
!! Ethnic Group: Han
!! WII, 128 (2)
!!!SCT: J0598
!!!YEM: Copyright 1995, estate of Helmut Schaffrath.
**kern
*ICvox
*Ivox
*M2/4
*k[b-]
*F:
{8cc
8dd
4cc
=1
8dd
8ff
8a
8g
=2
8cc
8cc
8a
8cc
=3
8g
8f
8d
8c}
=4
{4g
8a
8g
=5
8f
16g
16f
4d
=6
8ff
8ff
8dd
8a
=7
2cc}
==
!!!AGN: Xiaodiao. Qingge, Aisu
!!!ONB: ESAC (Essen Associative Code) Database: CHINA
!!!AMT: simple duple
!!!AIN: vox
!!!EED: Helmut Schaffrath
!!!EEV: 1.0
*-
